tools/download-figma-icons/icons/solid/security.svg

<svg width="24" height="24" viewBox="0 0 24 24" fill="none" xmlns="http://www.w3.org/2000/svg">
<path fill-rule="evenodd" clip-rule="evenodd" d="M14.0775 8.03996C14.0775 7.02747 13.2518 6.20247 12.2475 6.20247C11.235 6.20247 10.4093 7.02747 10.4093 8.03996V9.45821H14.0775V8.03996ZM11.4975 12.8624C11.4975 12.4499 11.8275 12.1124 12.2475 12.1124C12.6593 12.1124 12.9975 12.4499 12.9975 12.8624V13.7849C12.9975 14.1974 12.6593 14.5349 12.2475 14.5349C11.8275 14.5349 11.4975 14.1974 11.4975 13.7849V12.8624ZM9.30753 15.6899H15.18V10.9575H9.30753V15.6899ZM16.68 16.4399C16.68 16.8524 16.35 17.1899 15.93 17.1899H8.55753C8.14504 17.1899 7.80754 16.8524 7.80754 16.4399V10.2082C7.80754 9.78745 8.14504 9.45821 8.55753 9.45821H8.90928V8.03996C8.90928 6.20247 10.4093 4.70248 12.2475 4.70248C14.085 4.70248 15.5775 6.20247 15.5775 8.03996V9.45821H15.93C16.35 9.45821 16.68 9.78745 16.68 10.2082V16.4399ZM19.9875 2.09999C16.8375 2.09999 15.9 1.46999 15.075 0.914995C14.4 0.464998 13.7025 0 12.2475 0C10.7843 0 10.0875 0.464998 9.41253 0.914995C8.58754 1.46999 7.64254 2.09999 4.49931 2.09999C4.08756 2.09999 3.74931 2.43749 3.74931 2.84999V13.8599C3.74931 16.1399 4.76255 18.2549 6.54005 19.6649L11.775 23.8356C11.9175 23.9474 12.0825 23.9999 12.2475 23.9999C12.4125 23.9999 12.5775 23.9474 12.7125 23.8356L17.9475 19.6649C19.725 18.2549 20.7375 16.1399 20.7375 13.8599V2.84999C20.7375 2.43749 20.4067 2.09999 19.9875 2.09999ZM14.0775 8.03996C14.0775 7.02747 13.2518 6.20247 12.2475 6.20247C11.235 6.20247 10.4093 7.02747 10.4093 8.03996V9.45821H14.0775V8.03996ZM12.9975 13.7849C12.9975 14.1974 12.6593 14.5349 12.2475 14.5349C11.8275 14.5349 11.4975 14.1974 11.4975 13.7849V12.8624C11.4975 12.4499 11.8275 12.1124 12.2475 12.1124C12.6593 12.1124 12.9975 12.4499 12.9975 12.8624V13.7849ZM9.30753 15.6899H15.18V10.9575H9.30753V15.6899ZM12.9975 13.7849C12.9975 14.1974 12.6593 14.5349 12.2475 14.5349C11.8275 14.5349 11.4975 14.1974 11.4975 13.7849V12.8624C11.4975 12.4499 11.8275 12.1124 12.2475 12.1124C12.6593 12.1124 12.9975 12.4499 12.9975 12.8624V13.7849ZM9.30753 15.6899H15.18V10.9575H9.30753V15.6899ZM12.2475 6.20247C11.235 6.20247 10.4093 7.02747 10.4093 8.03996V9.45821H14.0775V8.03996C14.0775 7.02747 13.2518 6.20247 12.2475 6.20247Z" fill="black"/>
</svg>

<svg width="24" height="24" viewBox="0 0 24 24" fill="none" xmlns="http://www.w3.org/2000/svg"><path fill-rule="evenodd" clip-rule="evenodd" d="M14.078 8.04a1.84 1.84 0 0 0-1.83-1.838 1.841 1.841 0 0 0-1.839 1.838v1.418h3.668V8.04Zm-2.58 4.822c0-.412.33-.75.75-.75.411 0 .75.338.75.75v.923c0 .412-.339.75-.75.75a.747.747 0 0 1-.75-.75v-.923Zm-2.19 2.828h5.872v-4.732H9.308v4.732Zm7.372.75c0 .412-.33.75-.75.75H8.558a.752.752 0 0 1-.75-.75v-6.232c0-.42.337-.75.75-.75h.351V8.04c0-1.838 1.5-3.338 3.338-3.338s3.33 1.5 3.33 3.338v1.418h.353c.42 0 .75.33.75.75v6.232ZM19.988 2.1c-3.15 0-4.088-.63-4.913-1.185C14.4.465 13.703 0 12.248 0c-1.464 0-2.16.465-2.835.915C8.588 1.47 7.643 2.1 4.499 2.1a.753.753 0 0 0-.75.75v11.01a7.359 7.359 0 0 0 2.791 5.805l5.235 4.17a.76.76 0 0 0 .473.165c.165 0 .33-.053.465-.164l5.235-4.171a7.358 7.358 0 0 0 2.79-5.805V2.85a.748.748 0 0 0-.75-.75Zm-5.91 5.94a1.84 1.84 0 0 0-1.83-1.838 1.841 1.841 0 0 0-1.839 1.838v1.418h3.668V8.04Zm-1.08 5.745c0 .412-.339.75-.75.75a.747.747 0 0 1-.75-.75v-.923c0-.412.33-.75.75-.75.411 0 .75.338.75.75v.923Zm-3.69 1.905h5.872v-4.732H9.308v4.732Zm3.69-1.905c0 .412-.339.75-.75.75a.747.747 0 0 1-.75-.75v-.923c0-.412.33-.75.75-.75.411 0 .75.338.75.75v.923Zm-3.69 1.905h5.872v-4.732H9.308v4.732Zm2.94-9.488a1.841 1.841 0 0 0-1.839 1.838v1.418h3.668V8.04a1.84 1.84 0 0 0-1.83-1.838Z" fill="currentColor"/></svg>
